!!!!SEGMENT: pl-kk--kk-i-88--001-007_golabek-jakub--missa-1-benedictus.krn
!!!cenid: 17xx:2572
!!!COM: Gołąbek, Jakub
!!!COM-rismID: pe30008748
!!!CDT: 1739-1789/03/30
!!!CNT: Polish
!!!OPR: Missa 1
!!!OTL: Benedictus
!!!OMV: 007
!!!PDT:
!!!AGN: Sacred; Mass
!!!YEC: Copyright 2022 Narodowy Instytut Fryderyka Chopina (https://polishscores.org)
!!!YEM: License CC-BY-4.0 (https://creativecommons.org/licenses/by/4.0)
!!!SMS-siglum: PL-Kk
!!!SMS-shelfmark: Kk.I.88
!!!SMS-variant:
!!!SMS-altvar:
!!!SMS-shelfwork: 001-007 M
!!!NIFC-rismSourceID: 1001164072
!!!NIFC-rismChildID: 1001155167
!!!NIFC-islandoraID:
!!!URL-pdf-islandora: https://repozytorium.nifc.pl/islandora/object/pl-kk%3A3086/datastream/PDF/view
!!!URL-scan: https://polish.musicsources.pl/pl/lokalizacje/galeria/rekopisy/6148-missa/4 @EN{Scan on Polish Music Sources Website} @PL{Skany w portalu Dziedzictwo Muzyki Polskiej w otwartym dostępie}
!!!IIIF:
!!!ONB-nifc: UWAGA: C - f. 2r-3v; A - f. 10r-11v; T - f. 18r-19v; B - f. 26r-27v; B rip - f. 33r-34r. Proszę uwzględniać B rip. Części Mszy: 1. Kyrie, 2. Christe, 3. Et in terra, 4. Quoniam, 5. Sanctus, 6. Osanna, 7. Benedictus, 8. Agnus Dei, 9. Dona nobis
!!!OMD:
!!!AIN: 1 alto 2 bass 1 canto 1 tenor
!!!key: a
**kern	**text	**kern	**text	**kern	**text	**kern	**text	**kern	**text
*part5	*part5	*part4	*part4	*part3	*part3	*part2	*part2	*part1	*part1
*staff5	*staff5	*staff4	*staff4	*staff3	*staff3	*staff2	*staff2	*staff1	*staff1
*I"Baſso E ripieno	*	*I"Baſso	*	*I"Tenore	*	*I"Alto	*	*I"Canto	*
*I'B rip	*	*I'B	*	*I'T	*	*I'A	*	*I'S	*
*Ibass	*	*Ibass	*	*Itenor	*	*Ialto	*	*Icanto	*
*ICvox	*	*ICvox	*	*ICvox	*	*ICvox	*	*ICvox	*
*clefF4	*	*clefF4	*	*clefC4	*	*clefC3	*	*clefC1	*
*k[]	*	*k[]	*	*k[]	*	*k[]	*	*k[]	*
*a:	*	*a:	*	*a:	*	*a:	*	*a:	*
*M3/2	*	*M3/2	*	*M3/2	*	*M3/2	*	*M3/2	*
=1	=1	=1	=1	=1	=1	=1	=1	=1	=1
0.r	.	0.r	.	1.r	.	2A/	Be-	1.r	.
.	.	.	.	.	.	2c/	.	.	.
.	.	.	.	.	.	4B/	-ne-	.	.
.	.	.	.	.	.	4A/	.	.	.
=2	=2	=2	=2	=2	=2	=2	=2	=2	=2
*	*	*	*	*	*	*2\right	*	*2\right	*
.	.	.	.	2G#X/	Be-	2e\	-dic-	2b\	Be-
.	.	.	.	2B/	.	2e\	-tus	2dd\	.
.	.	.	.	4A/	-ne-	2e\	qui	4cc\	-ne-
.	.	.	.	4G#/	.	.	.	4b\	.
=3	=3	=3	=3	=3	=3	=3	=3	=3	=3
2r	.	2r	.	4A/	-dic-	1.e	ve-	4cc\	-dic-
.	.	.	.	4G/	.	.	.	4b\	.
2r	.	2r	.	2A/	-tus	.	.	2cc\	-tus
*2\right	*	*2\right	*	*	*	*	*	*	*
2G#X\	qui	2G#X\	qui	2B/	qui	.	.	2dd\	qui
=4	=4	=4	=4	=4	=4	=4	=4	=4	=4
2A\	ve-	2A\	ve-	2A/	ve-	2e\	.	2cc\	ve-
2E\	-nit	2E\	-nit	2G#X/	-nit	2e\	-nit	2b\	-nit
2r	.	2r	.	2r	.	2r	.	2r	.
=5	=5	=5	=5	=5	=5	=5	=5	=5	=5
0.r	.	0.r	.	1.r	.	2c\	Be-	1.r	.
.	.	.	.	.	.	4f\	.	.	.
.	.	.	.	.	.	4e\	.	.	.
.	.	.	.	.	.	4d\	-ne-	.	.
.	.	.	.	.	.	4c\	.	.	.
=6	=6	=6	=6	=6	=6	=6	=6	=6	=6
*	*	*	*	*2\right	*	*	*	*	*
.	.	.	.	2B\	Be-	2g\	-dic-	2dd\	Be-
.	.	.	.	2d\	.	2g\	-tus	2ff\	.
.	.	.	.	4c\	-ne-	2g\	qui	4ee\	-ne-
.	.	.	.	4B\	.	.	.	4dd\	.
=7	=7	=7	=7	=7	=7	=7	=7	=7	=7
2r	.	2r	.	4c\	-dic-	1.g	ve-	4ee\	-dic-
.	.	.	.	4B\	.	.	.	4dd\	.
!	!	!	!	!LO:LB:g=original	!	!	!	!	!
=-	=-	=-	=-	=-	=-	=-	=-	=-	=-
2r	.	2r	.	2c\	-tus	.	.	2ee\	-tus
2Gn\	qui	2G\	qui	2d\	qui	.	.	2ff\	qui
!	!	!	!	!	!	!	!	!LO:LB:g=original	!
=8	=8	=8	=8	=8	=8	=8	=8	=8	=8
2c\	ve-	2c\	ve-	2c\	ve-	2g\	.	2ee\	ve-
2G\	-nit	2G\	-nit	2B\	-nit	2g\	-nit	2dd\	-nit
2r	.	2r	.	2r	.	2r	.	2r	.
!	!	!LO:LB:g=original	!	!	!	!LO:LB:g=original	!	!	!
=9	=9	=9	=9	=9	=9	=9	=9	=9	=9
1G#X	Be-	1G#X	Be-	1B	Be-	1fn	Be-	1dd	Be-
2G#\	-ne-	2G#\	-ne-	2B\	-ne-	2f\	-ne-	2dd\	-ne-
=10	=10	=10	=10	=10	=10	=10	=10	=10	=10
2A\	-dic-	2A\	-dic-	2c\	-dic-	2e\	-dic-	2cc\	-dic-
2B\	-tus	2B\	-tus	2e\	-tus	2d\	-tus	2b\	-tus
2c\	qui	2c\	qui	2e\	qui	2c\	qui	2a\	qui
!LO:LB:g=original	!	!	!	!	!	!	!	!	!
=11	=11	=11	=11	=11	=11	=11	=11	=11	=11
2d\	ve-	2d\	ve-	2e\	ve-	2B/	ve-	2g#X\	ve-
2c\	-nit	2c\	-nit	2e\	-nit	2c/	-nit	2a\	-nit
2B\	in	2B\	in	2e\	in	2d/	in	2b\	in
=12	=12	=12	=12	=12	=12	=12	=12	=12	=12
2.A\	no-	2.A\	no-	2.c\	no-	2.e\	no-	2.cc\	no-
4B\	-mi-	4B\	-mi-	4d\	-mi-	4d\	-mi-	4b\	-mi-
2c\	-ne	2c\	-ne	2e\	-ne	2c\	-ne	2a\	-ne
=13	=13	=13	=13	=13	=13	=13	=13	=13	=13
2D\	Do-	2D\	Do-	1A	Do-	4f\	Do-	4dd\	Do-
.	.	.	.	.	.	4d\	.	4b\	.
2E\	.	2E\	.	.	.	2c/	.	2a\	.
2E\	-mi-	2E\	-mi-	2e\	-mi-	2B/	-mi-	2g#X\	-mi-
=14	=14	=14	=14	=14	=14	=14	=14	=14	=14
1AA	-ni	1AA	-ni	1e	-ni	1c	-ni	1a	-ni
2r	.	2r	.	2r	.	2r	.	2r	.
=15	=15	=15	=15	=15	=15	=15	=15	=15	=15
1G#X	Be-	1G#X	Be-	1B	Be-	1fn	Be-	1dd	Be-
2G#\	-ne-	2G#\	-ne-	2B\	-ne-	2f\	-ne-	2dd\	-ne-
!	!	!LO:LB:g=original	!	!LO:LB:g=original	!	!	!	!LO:LB:g=original	!
=16	=16	=16	=16	=16	=16	=16	=16	=16	=16
2A\	-dic-	2A\	-dic-	2c\	-dic-	2e\	-dic-	2cc\	-dic-
2B\	-tus	2B\	-tus	2e\	-tus	2d\	-tus	2b\	-tus
2c\	qui	2c\	qui	2e\	qui	2c\	qui	2a\	qui
!	!	!	!	!	!	!LO:LB:g=original	!	!	!
=17	=17	=17	=17	=17	=17	=17	=17	=17	=17
2d\	ve-	2d\	ve-	2e\	ve-	2B/	ve-	2g#X\	ve-
2c\	-nit	2c\	-nit	2e\	-nit	2c/	-nit	2a\	-nit
2B\	in	2B\	in	2e\	in	2d\	in	2b\	in
=18	=18	=18	=18	=18	=18	=18	=18	=18	=18
2.A\	no-	2.A\	no-	2.c\	no-	2.e\	no-	2.cc\	no-
4B\	-mi-	4B\	-mi-	4d\	-mi-	4d\	-mi-	4b\	-mi-
2c\	-ne	2c\	-ne	2e\	-ne	2c\	-ne	2a\	-ne
=19	=19	=19	=19	=19	=19	=19	=19	=19	=19
2D\	Do-	2D\	Do-	2f\	Do-	4f\	Do-	4dd\	Do-
.	.	.	.	.	.	4d\	.	4b\	.
2E\	.	2E\	.	2e\	.	2c/	.	2a\	.
2E\	-mi-	2E\	-mi-	2e\	-mi-	2B/	-mi-	2g#X\	-mi-
!LO:LB:g=original	!	!	!	!	!	!	!	!	!
=20	=20	=20	=20	=20	=20	=20	=20	=20	=20
!	!	!	!	!LO:N:vis=2.e\	!	!	!	!	!
2A\	-ni	2A\	-ni	2e\	-ni	2c/	-ni.	2a\	-ni
2G#X\	be-	2G#X\	Be-	2B\	Be-	2f\	Be-	2dd\	Be-
2A\	-ne-	2A\	-ne-	2A\	-ne-	2e\	-ne-	2cc\	-ne-
=21	=21	=21	=21	=21	=21	=21	=21	=21	=21
1.E	-dic-	1.E	-dic-	1A	-dic-	1.e	-dic-	1cc	-dic-
.	.	.	.	2G#X/	.	.	.	2b\	.
=22	=22	=22	=22	=22	=22	=22	=22	=22	=22
!LO:TX:a:t=Osanna da Capo	!	!LO:TX:a:t=Osanna da\n Capo	!	!LO:TX:a:t=Osanna da\n Capo	!	!LO:TX:a:t=Osanna da Capô	!	!LO:TX:a:t=Osanna\n da\n Capo	!
1.AA	-tus	1.AA	-tus	1.A	-tus	1.e	-tus	1.cc	-tus
==;;	==	==;;	==	==;;	==	==;;	==	==;;	==
*-	*-	*-	*-	*-	*-	*-	*-	*-	*-
!!!system-decoration: [(s1,s2,s3,s4)]s5
!!!ENC: Berenika Jozajtis
!!!END: 2024-02-23
!!!EED: Marta Chmielewska
!!!EEV: 2024-04-29
